X: 1
T: l'Inconnu de Limoise
C: Jean-Fran\,cois "Maxou" Neintzen
R: mazurka
S: Handout at 2014 NEFFA
Z: 2015 John Chambers <jc:trillian.mit.edu>
M: 9/8
L: 1/8
K: C
G c2d |\
"C"e3- e2c f2d | "Em"e3- e2e f2g |\
"F"f3- f2e d2c | "G"d3- d2G c2d |\
"C"e3- e2c f2d | "Em"e3- e2e f2g |\
"F"f3- f2e d2c |1 "G"G3- G2 :|2 "G"d3- d2 \
|: e f2g |
"F"a3 c'2b a2b | "C"g3- g2f e2d |\
"Am"c2B c2d edc | "Em"G3- G2c c2B |\
"F"A3- A2B c2d | c3 B3 A3 |\
[1 "G"B3- B2A B2c | d3-d2 :|\
[2 "G"B2A B2c d2e | "C"c3- c2 |]
